!!!ONB: MCCC : ILB0190_01 : Extracted Monophonic Melody
!!!COM: Beethoven, Ludwig van
!!!OPR: Piano Sonata No.29
!!!OMV: 1
!!!SCT: Op.106
!!!ODT: 1817///
**kern
*thru
*staff1
*Ipiano
*>A
*clefG2
*k[b-e-]
*B-:
*M2/2
*MM138
8ddd
4ddd
8eee-
8ddd
=3
4ddd
4bb-
2r
=4
4r
8r
8fff
4fff
8ggg
8fff
=5
4fff
4ddd
4r
8b-
8cc
=6
2dd
4cc
8cc
8dd
=7
2ee-
4dd
8dd
8ee-
=8
4.ff
8gg
8ff
4ee-
8ff
=9
8ee-
8dd
8ff
8ee-
4cc
*8va
8bb-
8ccc
=10
2ddd
4ccc
8ccc
8ddd
=11
2eee-
4ddd
8ddd
8eee-
=12
4.fff
8ggg
8fff
4eee-
8fff
=13
8eee-
4ddd
8eee-
8ddd
8ccc
8ddd
8eee-
=14
8ggg
8fff
8ggg
8fff
8fff
8eee-
8fff
8eee-
=15
8eee-
8ddd
8eee-
8ddd
8ddd
8ccc
8ddd
8eee-
=16
8ggg
8fff
4eee
8ggg
4aaa-
8aaa
=17
8cccc
8bbb-
8aaa
8ggg
4fff
4aaa
=18
2bbb-
*X8va
2bb-
=19
4ddd
4bb-
4ddd
4ccc
=20
2eee-
2ccc
=21
4eee-
4ccc#
4eee-
4ddd
=22
2fff
2ddd
=23
*8va
4fff
4ddd
4fff
4eee-
=24
2ggg
2eee-
=25
4ggg
4eee
4ggg-
4fff
=26
4aaa-
4fff
4aaa-
4ggg
=27
4bbb-
4ggg#
4bbb-
4aaa
=28
4cccc
4bbb-
4ggg
4fff
=29
4eee-
4ddd
4ccc
4bb-
*X8va
=30
4gg
4ff
4ee-
4dd
=31
4cc
4b-
4g
4f
=32
4a
4f
4cc
4f
=33
4ff
4f
4aa
4f
=34
4ccc
4f
4fff
4f
=35
4fff
4f
4fff
4r
=36
4r
8r
8ddd
4ddd
8eee-
8ddd
=37
4ddd
4bb-
2r
=38
4r
8r
8ddd
4ddd
8ddd
8ddd
=39
4ddd
4ddd
4r
8r
8r
=40
4r
4dd
4r
4dd
=41
4r
4dd
4r
4dd
=42
4r
4ff#
4r
4ff#
=43
4r
4aa
4r
4ccc
=44
4r
*8va
4fff#
4r
4aaa
=45
4r
4cccc
4r
4cccc
=46
*k[f#]
4cccc
*X8va
8ccc
8bb
4ccc
8a
8b-
=47
4a
8ccc
8bb
4ccc
*8va
8fff#
8aaa
=48
8cccc
8dddd
8cccc
8bbb
8cccc
8dddd
8eeee
8cccc
=49
8aaa
8bbb
8cccc
8aaa
8fff#
8ggg
8aaa
8fff#
*X8va
=50
8ccc
8ddd
8eee
8ccc
8aa
8bb
8ccc
8aa
=51
8ff#
8gg
8aa
8ff#
4dd
4r
=52
*8va
8bbb
8cccc
8bbb
8aaa
8bbb
8cccc
8dddd
8bbb
=53
8ggg
8aaa
8bbb
8ggg
8ddd
8fff#
8ggg
8ddd
*X8va
=54
8bb
8ccc
8ddd
8bb
8gg
8aa
8bb
8gg
=55
8dd
8ff#
8gg
8b
8g
8a
8b
8g
=56
4a
8eee
8ddd
8eee
8ddd
8ccc
8eee
=57
8ccc
8bb
8aa
8ccc
8aa
8gg
8ff#
8aa
=58
8ee
8dd
8cc
8ee
8cc
8b
8a
8cc
=59
8a
8g
8f#
8a
8cc
8b
8a
8cc
=60
4g
*8va
8dddd
8cccc
8dddd
8cccc
8bbb
8dddd
=61
8bbb
8aaa
8ggg
8bbb
*X8va
8bb
8aa
8gg
8bb
=62
8dd
8cc
8b
8dd
8bb
8aa
8gg
8bb
=63
8ddd
8ccc
8bb
8ddd
4eee
4fff#
=64
4ggg
4r
2r
=65
4r
4a
8b
8r
*8va
8ggg
8fff#
=66
4ggg
4eee
4ddd
4ccc#
=67
4eee
4ddd
4ddd
8ddd
8ccc
=68
4bb
4ggg
8eee
8r
8cccc
8aaa
=69
4fff#
4dddd
8bbb
8r
8ggg
8fff#
=70
4ggg
4eee
4ccc
*X8va
4bb
=71
2.bb
[4eee
=72
2.eee]
[4ddd
=73
2.ddd]
[4ccc#
=74
2.ccc#]
4bb
=75
8ff
4ee
8aa
8ee-
4dd
8gg
=76
8dd
8ddd
8ccc#
8ccc
8aa
8ff#
8ee-
8dd
=77
8cc#
8cc
8a
8f#
4g
8ee
8dd
=78
8dd
8ddd
8ccc#
8ccc
8aa
8ff#
8ee-
8dd
=79
8cc#
8cc
8a
8f#
4g
8ee
8dd
=80
8dd
8gg
8bb
8aa
2gg[
=81
2gg]
4ff#
8dd
8ddd
=82
*8va
8ddd
8dddd
8cccc#
8cccc
8aaa
8fff#
8eee-
8ddd
*X8va
=83
8ccc#
8ccc
8aa
8ff#
4gg
8eee
8ddd
=84
*8va
8ddd
8dddd
8cccc#
8cccc
8aaa
8fff#
8eee-
8ddd
*X8va
=85
8ccc#
8ccc
8aa
8ff#
4gg
8eee
8ddd
=86
8ddd
8gg
8bb
8aa
2gg[
=87
2gg]
4ff#
4gg
=88
8gg
8ccc
8eee
8ddd
[2ccc
=89
2ccc]
4bb
4ccc
=90
*8va
8ccc
8fff
8aaa
8ggg
2fff[
=91
2fff]
[2eee
=92
4eee]
4eee
4ddd
8eee
8fff
=93
4ggg
4eee
2r
=94
4r
4eee
4ddd
8eee
8fff
=95
4ggg
4ggg
4r
4ggg
=96
4r
4ggg
4r
4ggg
=97
2ggg
[2ddd
=98
4ddd]
4bb
8dd
8ff#
8gg
8bb
=99
8ccc#
8ddd
8eee
8ddd
8fff#
8ggg
8aaa
8ggg
=100
8aaa#
8bbb
8cccc
8bbb
4dddd
*X8va
4ccc
=101
1bb
=102
2ccc
2eee-
=103
1ggg
=104
2eee-
2ccc
=105
2bb-
2bb
=106
2ddd
4.ccc
8aa
=107
1bb
=108
2ccc
2eee
=109
1ggg[
=110
2ggg_
2ggg]
=111
4bb-
2bb-
4ddd
=112
1ddd
=113
*8va
4dddd
2dddd
4cccc
=114
4bbb
4cccc
4dddd
4bbb
=115
4cccc
4bbb
4cccc
4cccc
=116
4ggg
4ggg
4fff#
4aaa
=117
4ggg
4ddd
4fff#
4aaa
=118
4ggg
4ddd
4fff#
4aaa
=119
8gg
8ggg
8dd
8ddd
8ff#
8fff#
8aa
8aaa
=120
8gg
8ggg
8dd
8ddd
8ff#
8fff#
8aa
8aaa
*X8va
=121
*8va
4ggg
4r
4aaa
4r
=122
2bbb-[
4.bbb-]
*X8va
8r
=123
1r
=124
2r
4r
8r
8B-
=125
4.b-
8b-
4b-
4r
=126
1r
*>A
*k[b-e-]
*M2/2
=128
4r
8r
8ddd
4ddd
8eee-
8ddd
=129
4ddd
4bb-
2r
=130
4r
8r
8fff
4fff
8ggg
8fff
=131
4fff
4ddd
4r
8b-
8cc
=132
2dd
4cc
8cc
8dd
=133
2ee-
4dd
8dd
8ee-
=134
4.ff
8gg
8ff
4ee-
8ff
=135
8ee-
8dd
8ff
8ee-
4cc
*8va
8bb-
8ccc
=136
2ddd
4ccc
8ccc
8ddd
=137
2eee-
4ddd
8ddd
8eee-
=138
4.fff
8ggg
8fff
4eee-
8fff
=139
8eee-
4ddd
8eee-
8ddd
8ccc
8ddd
8eee-
=140
8ggg
8fff
8ggg
8fff
8fff
8eee-
8fff
8eee-
=141
8eee-
8ddd
8eee-
8ddd
8ddd
8ccc
8ddd
8eee-
=142
8ggg
8fff
4eee
8ggg
4aaa-
8aaa
=143
8cccc
8bbb-
8aaa
8ggg
4fff
4aaa
=144
2bbb-
*X8va
2bb-
=145
4ddd
4bb-
4ddd
4ccc
=146
2eee-
2ccc
=147
4eee-
4ccc#
4eee-
4ddd
=148
2fff
2ddd
=149
*8va
4fff
4ddd
4fff
4eee-
=150
2ggg
2eee-
=151
4ggg
4eee
4ggg-
4fff
=152
4aaa-
4fff
4aaa-
4ggg
=153
4bbb-
4ggg#
4bbb-
4aaa
=154
4cccc
4bbb-
4ggg
4fff
=155
4eee-
4ddd
4ccc
4bb-
*X8va
=156
4gg
4ff
4ee-
4dd
=157
4cc
4b-
4g
4f
=158
4a
4f
4cc
4f
=159
4ff
4f
4aa
4f
=160
4ccc
4f
4fff
4f
=161
4fff
4f
4fff
4r
=162
4r
8r
8ddd
4ddd
8eee-
8ddd
=163
4ddd
4bb-
2r
=164
4r
8r
8ddd
4ddd
8ddd
8ddd
=165
4ddd
4ddd
4r
8r
8r
=166
4r
4dd
4r
4dd
=167
4r
4dd
4r
4dd
=168
4r
4ff#
4r
4ff#
=169
4r
4aa
4r
4ccc
=170
4r
*8va
4fff#
4r
4aaa
=171
4r
4cccc
4r
4cccc
=172
*k[f#]
4cccc
*X8va
8ccc
8bb
4ccc
8a
8b-
=173
4a
8ccc
8bb
4ccc
*8va
8fff#
8aaa
=174
8cccc
8dddd
8cccc
8bbb
8cccc
8dddd
8eeee
8cccc
=175
8aaa
8bbb
8cccc
8aaa
8fff#
8ggg
8aaa
8fff#
*X8va
=176
8ccc
8ddd
8eee
8ccc
8aa
8bb
8ccc
8aa
=177
8ff#
8gg
8aa
8ff#
4dd
4r
=178
*8va
8bbb
8cccc
8bbb
8aaa
8bbb
8cccc
8dddd
8bbb
=179
8ggg
8aaa
8bbb
8ggg
8ddd
8fff#
8ggg
8ddd
*X8va
=180
8bb
8ccc
8ddd
8bb
8gg
8aa
8bb
8gg
=181
8dd
8ff#
8gg
8b
8g
8a
8b
8g
=182
4a
8eee
8ddd
8eee
8ddd
8ccc
8eee
=183
8ccc
8bb
8aa
8ccc
8aa
8gg
8ff#
8aa
=184
8ee
8dd
8cc
8ee
8cc
8b
8a
8cc
=185
8a
8g
8f#
8a
8cc
8b
8a
8cc
=186
4g
*8va
8dddd
8cccc
8dddd
8cccc
8bbb
8dddd
=187
8bbb
8aaa
8ggg
8bbb
*X8va
8bb
8aa
8gg
8bb
=188
8dd
8cc
8b
8dd
8bb
8aa
8gg
8bb
=189
8ddd
8ccc
8bb
8ddd
4eee
4fff#
=190
4ggg
4r
2r
=191
4r
4a
8b
8r
*8va
8ggg
8fff#
=192
4ggg
4eee
4ddd
4ccc#
=193
4eee
4ddd
4ddd
8ddd
8ccc
=194
4bb
4ggg
8eee
8r
8cccc
8aaa
=195
4fff#
4dddd
8bbb
8r
8ggg
8fff#
=196
4ggg
4eee
4ccc
*X8va
4bb
=197
2.bb
[4eee
=198
2.eee]
[4ddd
=199
2.ddd]
[4ccc#
=200
2.ccc#]
4bb
=201
8ff
4ee
8aa
8ee-
4dd
8gg
=202
8dd
8ddd
8ccc#
8ccc
8aa
8ff#
8ee-
8dd
=203
8cc#
8cc
8a
8f#
4g
8ee
8dd
=204
8dd
8ddd
8ccc#
8ccc
8aa
8ff#
8ee-
8dd
=205
8cc#
8cc
8a
8f#
4g
8ee
8dd
=206
8dd
8gg
8bb
8aa
2gg[
=207
2gg]
4ff#
8dd
8ddd
=208
*8va
8ddd
8dddd
8cccc#
8cccc
8aaa
8fff#
8eee-
8ddd
*X8va
=209
8ccc#
8ccc
8aa
8ff#
4gg
8eee
8ddd
=210
*8va
8ddd
8dddd
8cccc#
8cccc
8aaa
8fff#
8eee-
8ddd
*X8va
=211
8ccc#
8ccc
8aa
8ff#
4gg
8eee
8ddd
=212
8ddd
8gg
8bb
8aa
2gg[
=213
2gg]
4ff#
4gg
=214
8gg
8ccc
8eee
8ddd
[2ccc
=215
2ccc]
4bb
4ccc
=216
*8va
8ccc
8fff
8aaa
8ggg
2fff[
=217
2fff]
[2eee
=218
4eee]
4eee
4ddd
8eee
8fff
=219
4ggg
4eee
2r
=220
4r
4eee
4ddd
8eee
8fff
=221
4ggg
4ggg
4r
4ggg
=222
4r
4ggg
4r
4ggg
=223
2ggg
[2ddd
=224
4ddd]
4bb
8dd
8ff#
8gg
8bb
=225
8ccc#
8ddd
8eee
8ddd
8fff#
8ggg
8aaa
8ggg
=226
8aaa#
8bbb
8cccc
8bbb
4dddd
*X8va
4ccc
=227
1bb
=228
2ccc
2eee-
=229
1ggg
=230
2eee-
2ccc
=231
2bb-
2bb
=232
2ddd
4.ccc
8aa
=233
1bb
=234
2ccc
2eee
=235
[1ggg
=236
2ggg_
2ggg]
=237
4bb-
2bb-
4ddd
=238
1ddd
=239
*8va
4dddd
2dddd
4cccc
=240
4bbb
4cccc
4dddd
4bbb
=241
4cccc
4bbb
4cccc
4cccc
=242
4ggg
4ggg
4fff#
4aaa
=243
4ggg
4ddd
4fff#
4aaa
=244
4ggg
4ddd
4fff#
4aaa
=245
8gg
8ggg
8dd
8ddd
8ff#
8fff#
8aa
8aaa
=246
8gg
8ggg
8dd
8ddd
8ff#
8fff#
8aa
8aaa
*X8va
=247
*8va
4ggg
4r
4aaa
4r
=248
2bbb-[
4.bbb-]
*X8va
8r
=249
1r
=250
2r
4r
8r
8B-
=251
4.b-
8b-
4b-
4r
=252
1r
=253
*>B
*8va
4ggg
4r
4aaa
4r
=254
1bbb
=255
4bbb
4r
4cccc
4r
=256
1dddd
*X8va
=257
4ddd
2ddd
4ccc
=258
4bb
4ccc
4ddd
4bb
=259
4eee-
2eee-
4ddd
=260
4ccc
4ddd
4eee-
4ccc
=261
4fff
2fff
4eee-
=262
4ddd
4eee-
4fff#
4eee-
=263
*k[b-e-a-]
*8va
4ggg
4r
4aaa-
4r
=264
1bbb-
*X8va
=265
4g
4r
4a-
4r
=266
[2b-
4.b-]
8r
=267
1r
=268
2r
4r
8r
8E-
=269
4.e-
8e-
4e-
4r
=270
2r
4r
8r
8BB-
=271
4.E-
8E-
4E-
8F
8E-
=272
4E-
4C
2C
=273
4A-
8A-
8G
4F
8F
8E-
=274
4D
4r
2D
=275
4B-
8B-
8A-
4G
8G
8F
=276
4E
4r
2E
=277
4c
8c
8B-
4A-
8A-
8G
=278
4F
8F
8G
4A-
8A-
8B-
=279
4G
8G
8F
4E-
8r
8f
=280
4b-
4b-
4b-
8cc
8b-
=281
4b-
4g
2g
=282
4ee-
8ee-
8dd
4cc
8cc
8b-
=283
4a
8f
8e-
2a
=284
4ff
8ff
8ee-
4dd
8dd
8cc
=285
4b
8g
8f
2b
=286
4gg
8gg
8ff
4ee-
8ee-
8dd
=287
4cc
8cc
8b-
4a-
8a-
8g
=288
4f
8f
8g
4a-
4b-
=289
4b-
8r
8g
4g
8a-
8b-
=290
4.ee-
8ee-
4ee-
8ff
8ee-
=291
4ee-
8cc
8b-
2cc
=292
4aa-
8aa-
8gg
4ff
8ff
8ee-
=293
4dd
8dd
8cc
2dd
=294
4bb-
8bb-
8aa-
4gg
8gg
8ff
=295
4ee
4e
4f
4g
=296
2.a-
4a
=297
4b-
8gg
8ff
4ee-
8ee-
8dd
=298
2.cc
4cc#
=299
4dd
8ee-
8dd
4cc
8b
8g
=300
4.ee-
8ee-
4ee-
8ff
8ee-
=301
4ee-
4cc
2cc
=302
4aa-
8aa-
8gg
4ff
8ff
8ee-
=303
4dd-
4r
2dd-
=304
4bb-
8bb-
8aa-
4gg
8gg
8ff
=305
4ee-
4r
2ff
=306
4ccc
8ccc
8bb-
4aa-
8bb-
8aa-
=307
4gg
8fff
8eee-
4ddd
8eee-
8ddd
=308
4ccc
8bb-
8ccc
4ddd-
8aa-
8bb-
=309
4ccc
8ee-
8ff
4gg
4r
=310
[2bb
4.bb]
8dd
=311
2.bb
8eee-
8ddd
=312
8ggg
8fff
4r
8gg
8ff
4r
=313
8g
8f
4r
8gg
8ff
4r
=314
[2eee-
4.eee-]
8gg
=315
2eee-
4eee-
*8va
8fff
8eee-
*X8va
=316
8aa-
8gg
4r
8aa-
8gg
4r
=317
8a-
8g
4r
8aa-
8gg
4r
=318
[2fff
4.fff]
8ff
=319
2fff[
4fff]
8gg
8ff
=320
8bb-
8aa-
4r
8bb-
8aa-
4r
=321
8b-
8a-
4r
8bb-
8aa-
4r
=322
[2ggg
4.ggg]
8bb-
=323
2ggg[
4ggg]
8r
8aa
=324
*8va
[2aaa
4.aaa]
8aa
=325
[2aaa
4.aaa]
8bb
=326
*k[]
[2bbb
4.bbb]
8bb
=327
[2bbb
4.bbb]
8ccc#
=328
[2cccc#
4.cccc#]
8ccc#
=329
[2cccc#
4.cccc#]
8ddd
=330
4.dddd
8ddd
4.dddd
*X8va
8dd
=331
*k[f#c#]
4.ddd
8dd
4.ddd
8dd
=332
4.ddd
8dd
4.ddd
8dd
=333
4.ddd
8dd
4.ddd
8dd#
=334
2ddd#
2dd#
=335
2eee
2gg
=336
1bb
=337
2gg
2ee
=338
2dd
2dd#
=339
2ff#
4ee
4cc#
=340
4dd#
4d
2d#
=341
2f#
4e
4c#
=342
8dd#
8ee
8dd#
8cc##
8dd#
8ee
8ff#
8ee#
=343
8gg#
8ff#
8ee#
8ff#
8ee
8dd#
8ee
8cc#
=344
4dd#
8d#
8c##
8d#
8e
8f#
8e#
=345
8g#
8f#
8e#
8f#
8e
8d#
8e
8f#
=346
4e
4r
2r
=347
*k[f#c#g#d#a#]
2r
4r
8r
8f#
=348
4.cc#
8cc#
4cc#
8dd#
8cc#
=349
4cc#
4a#
4e
8f#
8e
=350
8e
8c#
4r
4r
4r
=351
4.ee
8ee
4ee
8r
8cc#
=352
4cc#
4r
4r
4r
=353
4.aa#
8aa#
4aa#
8r
8a#
=354
4a#
8r
8E
[2c#
=355
4.c#]
8G
[2e
=356
8e]
8G
4.e
8gg
[4eee
=357
8eee]
8G#
4.e
8gg#
[4eee
=358
*k[b-e-]
8eee]
8A#
4.e-
8aa#
[4eee-
=359
8eee-]
8A#
4.f
8aa#
4fff
=360
4.ddd
8ddd
4ddd
8eee-
8ddd
=361
4ddd
4bb-
4r
8r
8ff
=362
4.fff
8fff
4fff
8ggg
8fff
=363
4fff
4ddd
4r
8bb-
8ccc
=364
2ddd
4ccc
8cc
8dd
=365
2ee-
4dd
8dd
8ee-
=366
4.ff
8gg
8ff
4ee-
8ff
=367
8ee-
8dd
8ff
8ee-
4cc
8dd
8ee-
=368
4.ff
8gg
4.ee-
8ff
=369
8ee-
8dd
8ff
8ee-
4cc
8ee-
8ff
=370
4.gg
8aa-
4.ff
8gg
=371
8ff
8ee-
8gg
8ff
4dd
8ff
8gg-
=372
4.aa-
8bb-
4gg-
8gg-
8aa-
=373
4.bb-
8ccc-
4aa-
8bb-
8ccc-
=374
4.ddd-
8eee-
8ddd-
4ccc-
8ddd-
=375
8ccc-
4aa
8ccc-
8bb-
8aa-
8bb-
8ccc-
=376
8eee-
8ddd-
8eee-
8ddd-
8ddd-
8ccc-
8ddd-
8ccc-
=377
8ccc-
8bb-
[8ccc-
8ccc-]
8bb-
8aa-
8bb-
8ccc-
=378
8eee-
8ddd-
4gg-
8ddd-
8ccc-
4ff
=379
8ccc-
8bb-
4gg-
8bb-
8aa-
8bb-
8ccc-
=380
8eee-
4ddd-
[8eee--
8eee--]
8eee-
8eee
8fff
=381
8aaa
8ggg-
8fff
8eee-
4ddd-
4fff
=382
2ggg-
2g-
=383
4b-
4g-
4b-
4a-
=384
*8va
2aaa-
*X8va
2a-
=385
4cc-
4a-
4cc-
4b-
=386
*8va
2bbb-
*X8va
2b-
=387
4dd-
4b-
4dd-
4cc-
=388
*8va
2cccc-
*X8va
2cc-
=389
4dd
4cc-
4dd
4dd-
=390
4ff-
4dd-
4ff-
4ee--
=391
4gg-
4ee--
4gg-
4ff
=392
4aaa-
4ggg-
4eee-
4ddd-
=393
4ccc-
4bb-
4aa-
4gg-
=394
4ee-
4dd-
4cc-
4b-
=395
4a-
4g-
4e-
4d-
=396
4f
4d-
4a-
4d-
=397
4dd-
4d-
4ff
4d-
=398
4aa-
4d-
4ddd-
4d-
=399
4ddd-
4d-
4.ccc#
8r
=400
*k[f#c#]
4r
8r
8ddd
4ddd
8eee
8ddd
=401
4ddd
4bb
4.r
8r
=402
4r
4ddd
4r
4ddd
=403
4r
4ddd
4r
4ddd
=404
4r
4ddd
4r
4ddd
=405
4r
4eee-
4r
4eee-
=406
*k[b-e-]
4r
4eee-
4r
4eee-
=407
4r
4eee-
4r
4eee-
=408
4r
4eee-
4r
*8va
4aaa
=409
4r
4cccc
4r
4eeee-
=410
4eeee-
*X8va
8eee-
8ddd
4eee-
8cc
8dd-
=411
4cc
8ee-
8dd
4ee-
8aa
8ccc
=412
8eee-
8fff
8eee-
8ddd
8eee-
8fff
8ggg
8eee-
=413
8ccc
8ddd
8eee-
8ccc
8aa
8bb-
8ccc
8aa
=414
8ee-
8ff
8gg
8ee-
8cc
8dd
8ee-
8cc
=415
8a
8b-
8cc
8a
4f
4r
=416
8ddd
8eee-
8ddd
8ccc
8ddd
8eee-
8fff
8ddd
=417
8bb-
8ccc
8ddd
8bb-
8ff
8aa
8bb-
8ff
=418
8dd
8ee-
8ff
8dd
8b-
8cc
8dd
8b-
=419
8f
8a
8b-
8d
8b-
8cc
8dd
8b-
=420
4cc
8ggg
8fff
8ggg
8fff
8eee-
8ggg
=421
8eee-
8ddd
8ccc
8eee-
8ccc
8bb-
8aa
8ccc
=422
8gg-
8ff
8ee-
8gg-
8ee-
8dd
8cc
8ee-
=423
8cc
8b-
8a
8cc
8e-
8d
8c
8e-
=424
4b-
8fff
8eee-
8fff
8eee-
8ddd
8fff
=425
8ddd
8ccc
8bb-
8ddd
8ff
8ee-
8dd
8ff
=426
8bb-
8gg
8ff
8bb-
8ff
8ee-
8dd
8ff
=427
8ddd
8ccc
8bb-
8ddd
8eee-
8ccc
8ddd
8eee-
=428
4fff
4r
2r
=429
4r
4cc
8dd
8r
8bb-
8aa
=430
4bb-
4ggg
4fff
4eee
=431
4ggg
4fff
4fff
8ff
8ee-
=432
4dd
4bb-
8gg
8r
8eee-
8ccc
=433
4aa
4fff
8ddd
8r
8bb-
8aa
=434
4bb-
4ggg
4eee-
4ddd
=435
2.ddd
[4ggg
=436
2.ggg]
[4fff
=437
2.fff]
4eee
=438
2.aa
4ddd
=439
8aa-
4gg
8ccc
8gg-
4ff
8bb-
=440
8ff
8fff
8eee
8eee-
8ccc
8aa
8gg-
8ff
=441
8ee
8ee-
8cc
8a
4b-
8gg
8ff
=442
8ff
8fff
8eee
8eee-
8ccc
8aa
8gg-
8ff
=443
8ee
8ee-
8cc
8a
4b-
8gg
8ff
=444
8ff
8bb-
8ddd
8ccc
2bb-[
=445
2bb-]
4aa
8ff
8fff
=446
*8va
8fff
8ffff
8eeee
8eeee-
8cccc
8aaa
8ggg-
8fff
*X8va
=447
8eee
8eee-
8ccc
8aa
4bb-
8ggg
8fff
=448
8r
8fff
8eee
8eee-
8ccc
8aa
8gg-
8ff
=449
8ee
8ee-
8cc
8a
4b-
8gg
8ff
=450
8ff
8bb-
8ddd
8ccc
2bb-[
=451
2bb-]
4aa
4bb-
=452
*8va
8bb-
8eee-
8ggg
8fff
2eee-[
=453
2eee-]
4ddd
4eee-
=454
4eee-
4aaa-
2aaa-[
=455
2aaa-]
[2ggg
=456
4ggg]
4ggg
4fff
8ggg
8aaa-
=457
4bbb-
4ggg
2r
=458
4r
4ggg
4fff
8ggg
8aaa-
=459
4bbb-
*X8va
4bb-
4r
4bb-
=460
4r
4bb-
4r
4bb-
=461
2bb-
[2ff
=462
4ff]
8dd
8r
8ff
8aa
8bb-
8ddd
=463
*8va
8eee
8fff
8ggg
8fff
8aaa
8bbb-
8cccc
8bbb-
=464
8cccc#
8dddd
8eeee-
8dddd
4ffff
*X8va
4ee-
=465
1dd
=466
2eee-
2ggg-
=467
[1bb-
=468
4bb-]
4ggg-
2eee-
=469
2ddd-
2ddd
=470
2fff
4.eee-
8ccc
=471
1ddd
=472
2eee-
2ggg
=473
[1bbb-
=474
2bbb-_
2bbb-]
=475
4ddd-
2ddd
4fff
=476
[2fff
8fff]
8eee-
8ccc
8fff
=477
4fff
*8va
2ffff
4eeee-
=478
4dddd
4eeee-
4ffff
4dddd
=479
4eeee-
4dddd
4eeee-
4cccc
=480
4bbb-
4bbb-
4aaa
4cccc
=481
4bbb-
4fff
4aaa
4cccc
=482
4bbb-
4fff
4aaa
4cccc
*X8va
=483
8b-
8bb-
8f
8ff
8a
8aa
8cc
8ccc
=484
8b-
8bb-
8f
8ff
8a
8aa
8cc
8ccc
=485
8b-
8bb-
8f
8ff
8b
8bb
8dd
8ddd
=486
8cc
8ccc
8g
8gg
8b
8bb
8dd
8ddd
=487
8cc
8ccc
8g
8gg
8cc
8ccc
8ee-
8eee-
=488
8dd
8ddd
8a
8aa
8cc#
8ccc#
8ee
8eee
=489
8dd
8ddd
8a
8aa
8dd
8ddd
8ff
8fff
=490
8ee-
8eee-
8b-
8bb-
8dd
8ddd
8ff
8fff
=491
8ee-
8eee-
8b-
8bb-
8ee-
8eee-
8gg-
8ggg-
=492
8ff
8fff
8cc
8ccc
8ee-
8eee-
8gg-
8ggg-
=493
8dd-
8ddd-
8a
8aa
8cc
8ccc
8ee-
8eee-
=494
8g-
8gg-
8f
8ff
8a
8aa
8ee-
8eee-
=495
1dd
=496
2ee-
2gg-
=497
1bb-
=498
2gg-
2ee-
=499
1dd
=500
2.ee-
4gg
=501
2.bb-
4aa-
=502
4gg
4ff
4ee-
4dd
=503
2.ee-
4dd
=504
4ff
2ee-
4dd
=505
1dd
=506
8dd
8ee-
8dd
8cc
8b-
8a
8b-
8cc
=507
8dd
8ee-
8ff
8gg
8aa
8bb-
8ccc
8ddd
=508
8eee-
8fff
8eee-
8ddd
8ccc
8bb-
8aa
8gg
=509
8ff
8ee-
8dd
8cc
8b-
8a
8g
8f
=510
4.dd
8dd
4dd
8r
8g
=511
4.ee-
8ee-
4ee-
8r
8g
=512
4.ee-
8ee-
4ee-
8r
8a
=513
4.ff
8ff
4ff
8r
8a
=514
4.ff
8ff
4ff
8r
8b-
=515
4.gg
8gg
4gg
4r
=516
2r
4r
8r
8ee-
=517
4.aa
8aa
4aa
4r
=518
1r
=519
4r
8r
8ddd
4ddd
8eee-
8ddd
=520
4ddd
4bb-
4dd
4b-
=521
4.fff
8fff
4fff
8ggg
8fff
=522
4fff
4ddd
4ff
4dd
=523
4fff
4ddd
4ff
4dd
=524
4ddd
4bb-
4dd
4b-
=525
4bb-
4ff
4b-
4f
=526
1ee-
=527
4ff
4dd
4f
4d
=528
4dd
4b-
4d
4B-
=529
4b-
4f
4B-
4F
=530
1e-
=531
4r
8r
8g-
4g-
4f
=532
4r
8r
8e-
4e-
4d
=533
4r
8r
8e-
4e-
4d
=534
4r
8r
8c
4c
4B-
=535
4r
8r
8d
4d
4B-
=536
4r
4d
2r
=537
2r
*8va
4bbb-
*X8va
4r
=538
1b-
==
*-
